X: 6
T:Dennington Bell
M:4/4
L:1/4
Q:110
S:Dolly Curtis
O:ref John Howson
A:Mid Suffolk
D:Who Owns THe Gam
Z:Bill Johnston (Approx
K:C
ED|Cc2B|cGDE|Fd2cd|CDEF|d2cd|DEFE|e2de|CEDC|c2Bc|CDED|d2cd|DEDD|d2cd|BAB
c|c/2d/2ed(c|c2)|||:
A3B|dcBA|G>AGc|e4|A3B|dcBA|G>AF>G|E2EF|Ee2d|eEDE|Fd2c|d2DE|Fd2c|dBAB|c>d
ed|c4||:
